X:476
T:Rakes of Mallow #1, The
C:Joe Buchanan's Scottish Tome - Page 141.3
I:141 3
R:Polka
Z:Carl Allison
L:1/8
M:4/4
K:Amaj
"A"A2 c2 A2 c2 | "A"A2 c2 dcBA | "E7"G2 B2 G2 B2 | "E7"G2 B2 gfed |
"A"A2 c2 A2 c2 | "A"A2 c2 "E7"e3 c | "Bm"dcBA "E7"GABd | "A"c2 A2 "A7"A4 :|
"A"a2 gf "E7"e2 d2 | "A"c2 d2 "E7"e4 | "A"a2 gf "E7"e2 d2 | "Bm"c2 d2 "E7"B4 |
"A"a2 gf "E7"e2 d2 | "A"c2 d2 "E7"e3 c | "Bm"dcBA "E7"GABd | "A"c2 A2 "E7"A4 :|

